X:1
T:Book 2 (after Slovakian Folksongs)
T:34. The Hidden House
T:For Children Nr 35, Sz 42 
T:35. Johnny is a bully
T:Book 2 (after Slovakian Folksongs)
T:Béla Bartók Revised and Arranged by the Composer, January 1945 
T:36. Roses for my sweetheart
T:Oli 2020
T:Oli 2020
C:Bartok, Bela
Z:Oli 2020
%%score { 1 | ( 2 3 ) }
L:1/8
Q:1/4=124
M:4/4
K:C
V:1 treble nm="Piano"
V:2 bass 
V:3 bass 
V:1
"^Allegro" z8 | z8 |!f! !^!!tenuto!!5!c2"^non legato" !3!c_B AB !tenuto!c2 | %3
 !^!!tenuto!!1!A2 !3!A_B AG !tenuto!F2 |!<(! !>!!2!F!1!CFG A!1!GAc!<)! | %5
 !^!!tenuto!!2!A2 !3!A_B AG !tenuto!F2 | z8 | z8 |!mf! c2 (c_B AB !tenuto!c2) | %9
 A2 (A_B AG !tenuto!F2) | (FCFG AGAc) | A2 (A_B AG !tenuto!F2) | z8 | z8 | z8 | %15
"^dolce"!p! !tenuto!c2 (c_B AB c2) | !tenuto!A2 (A_B AG F2) | (FCFG AGAc) | A2 (A_B AG F2) | z8 | %20
 z8 |][M:2/4][Q:1/4=50]"^Largo"!f! !tenuto!!3!c<!tenuto!c (!2!B<!4!c) | (!>!!3!B<!1!F) !2!G2 | %23
 !tenuto!!3!c<!tenuto!c(!>!d<c) | (!>!!2!B<!1!F) G2 | %25
 !tenuto!!1!G!tenuto!!3!_B!tenuto!!2!B!tenuto!!3!B | (!>!!2!_A<F) G2 |!mf! (!^!!5!d<c)(B<c) | %28
"_cresc." !>!B<F- F2 |!f! G4- | G2 z2 | c<!f!c (!>!B<c) | (!>!B<F) G2 | c<c(!>!B<c) | (!>!B<F) G2 | %35
 !tenuto!G!tenuto!_B!tenuto!B!tenuto!B | (!>!_A<F) G2 |!mf!!<(! (!^!d<c)(!>!B<c) | %38
 !>!_A<F- F2!<)! |!f! !^!G4- | G2 z2 |] %41
V:2
!f!!ped! !5!!1![F,,C,]2 [F,,C,][F,,C,] [F,,C,][F,,C,] [F,,C,]2 | %1
 [F,,C,]2 [F,,C,][F,,C,] [F,,C,][F,,C,] [F,,C,]2- | %2
!f! !tenuto!!1!A,2 !1!A,G,!ped-up! F,G, !tenuto!A,2 | !3!F,2 !1!F,C, A,,C, !tenuto!F,2 | %4
 z2 !4!D,E, F,E,F,!1!A, | !tenuto!!2!_B,2 !5!_B,,C, D,E, !tenuto!F,2 | %6
!f! [F,,C,]2 [F,,C,][F,,C,] [F,,C,][F,,C,] [F,,C,]2 | %7
 [F,,C,]2 [F,,C,][F,,C,] [F,,C,][F,,C,] [F,,C,]2 | z2!>(! ((!5!!2!!1![G,DE]4!>)! !5!!3![A,CE]2)) | %9
 z2!>(! (!4!!2!!1![E,G,C]4!>)! !5!!1![D,A,]2) |!>(! (!4!!2![_B,,D,]4!>)! [A,,E,]2) z2 | %11
 z2 (!5!!2![G,,F,]4!ped! _B,2)!ped-up! |!mp! [F,,C,]2 [F,,C,][F,,C,] [F,,C,][F,,C,] [F,,C,]2 | %13
!p! [F,,C,]2 [F,,C,][F,,C,] [F,,C,][F,,C,] [F,,C,]2 | %14
 [F,,C,]2 [F,,C,][F,,C,] [F,,C,][F,,C,] [F,,C,]2 | (E4 D4) | (E4 D4) | (_B,4 !
1
4
!C4) | %18
 (_B,4 C4) |!p! [C,G,]2 [C,G,][C,G,] [C,G,][C,G,] !tenuto![C,G,]2 | %20
 [F,,C,]2 [F,,C,][F,,C,] [F,,C,][F,,C,] [F,,C,]2 |] %21
[M:2/4] z2!ped! (!>!!5!F,,/!2
1
!C,!1
2
!_A,/)!ped-up! | %22
 z2!ped! (!>!!5!D,,/!2
1
!B,,!1
2
!F,/)!ped-up! | z2!ped! (!>!F,,/C,_A,/)!ped-up! | %24
 z2!ped! (!>!D,,/B,,F,/)!ped-up! | z2!ped! (!>!!5!_D,,/!2
1
!_A,,!1
2
!F,/)!ped-up! | %26
 z2!ped! (!>!B,,,/G,,D,/)!ped-up! | z2!ped! (!>!_A,,/F,C/)!ped-up! | %28
 z2!ped! (!>!F,,/D,_A,/)!ped-up! | z2!ped! (!>!C,,/G,,E,/) | z4!ped-up! | %31
 z2!ped! (!>!F,,/C,_A,/)!ped-up! | z2!ped! (!>!F,,/D,B,/)!ped-up! | %33
 z2!ped! (!>!_A,,/_E,_A,/)!ped-up! | z2!ped! (!>!_E,,/_B,,_B,/)!ped-up! | %35
 z2!ped! (!>!_D,,/_A,,F,/)!ped-up! | z2!ped! (!>!B,,,/G,,D,/)!ped-up! | %37
 z2!ped! (!>!_A,,/F,C/)!ped-up! | z2!ped! (!>!F,,/D,_A,/)!ped-up! | z2!ped! (!^!C,,/G,,E,/) | %40
 z4!ped-up! |] %41
V:3
 x8 | x8 | [F,,C,]4 z4 | x8 | x8 | x8 | x8 | x8 | x8 | x8 | x8 | x8 | x8 | x8 | x8 | %15
 (!1
2
!A,2 G,2 !1
4
!F,2 D,2) | (!1
2
!A,2 G,2 !1
4
!F,2 D,2) | (!1
2
!A,2 G,2 F,2 D,2) | %18
 (!1
2
!A,2 G,2 !1
4
!F,2 D,2) | x8 | x8 |][M:2/4] x4 | x4 | x4 | x4 | x4 | x4 | x4 | x4 | x4 | %30
 x4 | x4 | x4 | x4 | x4 | x4 | x4 | x4 | x4 | x4 | x4 |] %41

